X: 24
T: No_11_It_is_Raven_Mountain.krn
N: Derived from No_11_It_is_Raven_Mountain.krn
%%abc-version 2.0
%%abcx-abcm2ps-target-version 5.9.1 (29 Sep 2008)
%%abc-creator hum2abc beta
%%abcx-conversion-date 2019/03/15 08:37:56
%%humdrum-veritas 2778671386
%%humdrum-veritas-data 685222003
%%linebreak <none>
%%barnumbers 0
L: 1/8
M: 2/4
K: Gb clef=bass
E,2 [I:setbarnb 1]| 
B,2B,2 ||  
[M:3/4]B,4B,2 ||  
[M:2/4]B,2G,F,- | 
F, zB,2 | 
{/C}C2B,2 ||  
[M:3/4]B,G,- G,E,F,2 | 
E,2C,B,, B,, z | 
E,3C, E,C, ||  
[M:2/4]E,2C,B,, | 
B,, zE,2 ||  
[M:3/4]G,2G,2F,2 | 
E,2E,2F,2 ||  
[M:2/4]F,/E,3/F,2 ||  
[M:3/4]E,3C, (3E,E,E, | 
E,6 |]  



